public/assets/icons/discord-brands 1.svg

<svg width="80" height="80" viewBox="0 0 80 80" fill="none" xmlns="http://www.w3.org/2000/svg">
<g clip-path="url(#clip0)">
<path d="M63.6891 51.775C63.6891 55.0995 61.2206 57.8245 58.0937 57.8245C55.0217 57.8245 52.4983 55.0995 52.4983 51.775C52.4983 48.4505 54.9669 45.7255 58.0937 45.7255C61.2206 45.7255 63.6891 48.4505 63.6891 51.775ZM38.0709 45.7255C34.944 45.7255 32.4754 48.4505 32.4754 51.775C32.4754 55.0995 34.9989 57.8245 38.0709 57.8245C41.1977 57.8245 43.6663 55.0995 43.6663 51.775C43.7211 48.4505 41.1977 45.7255 38.0709 45.7255ZM96 11.227V109C82.1799 96.8665 86.5997 100.883 70.5463 86.0555L73.4537 96.138H11.2457C5.04686 96.138 0 91.124 0 84.911V11.227C0 5.014 5.04686 0 11.2457 0H84.7543C90.9531 0 96 5.014 96 11.227ZM80.3657 62.893C80.3657 45.344 72.4663 31.1195 72.4663 31.1195C64.5669 25.2335 57.0514 25.397 57.0514 25.397L56.2834 26.269C65.6091 29.103 69.9429 33.1905 69.9429 33.1905C56.9119 26.0951 41.6049 26.0938 28.9646 31.61C26.9349 32.5365 25.728 33.1905 25.728 33.1905C25.728 33.1905 30.2811 28.885 40.1554 26.051L39.6069 25.397C39.6069 25.397 32.0914 25.2335 24.192 31.1195C24.192 31.1195 16.2926 45.344 16.2926 62.893C16.2926 62.893 20.9006 70.7955 33.024 71.177C33.024 71.177 35.0537 68.7245 36.6994 66.6535C29.7326 64.5825 27.0994 60.2225 27.0994 60.2225C27.9064 60.7837 29.2371 61.5111 29.3486 61.585C38.6079 66.7365 51.7603 68.4243 63.5794 63.4925C65.4994 62.784 67.6389 61.7485 69.888 60.277C69.888 60.277 67.1451 64.746 59.9589 66.7625C61.6046 68.8335 63.5794 71.177 63.5794 71.177C75.7029 70.7955 80.3657 62.893 80.3657 62.893V62.893Z" fill="#D1E2E2"/>
</g>
<defs>
<clipPath id="clip0">
<rect width="80" height="80" fill="white"/>
</clipPath>
</defs>
</svg>

<svg width="80" height="80" fill="none" xmlns="http://www.w3.org/2000/svg"><g clip-path="url(#a)"><path d="M63.69 51.775c0 3.325-2.47 6.05-5.596 6.05-3.072 0-5.596-2.726-5.596-6.05 0-3.325 2.469-6.05 5.596-6.05 3.127 0 5.595 2.725 5.595 6.05zm-25.62-6.05c-3.126 0-5.595 2.725-5.595 6.05 0 3.325 2.524 6.05 5.596 6.05 3.127 0 5.595-2.726 5.595-6.05.055-3.325-2.468-6.05-5.595-6.05zM96 11.227V109c-13.82-12.133-9.4-8.117-25.454-22.945l2.908 10.083H11.246C5.046 96.138 0 91.124 0 84.911V11.227C0 5.014 5.047 0 11.246 0h73.508C90.954 0 96 5.014 96 11.227zM80.366 62.893c0-17.549-7.9-31.774-7.9-31.774-7.9-5.886-15.415-5.722-15.415-5.722l-.768.872c9.326 2.834 13.66 6.922 13.66 6.922-13.031-7.096-28.338-7.097-40.978-1.581-2.03.926-3.237 1.58-3.237 1.58s4.553-4.305 14.427-7.139l-.548-.654s-7.516-.163-15.415 5.723c0 0-7.9 14.224-7.9 31.773 0 0 4.609 7.903 16.732 8.284 0 0 2.03-2.453 3.675-4.524-6.966-2.07-9.6-6.43-9.6-6.43.807.56 2.138 1.288 2.25 1.362 9.259 5.152 22.411 6.84 34.23 1.907 1.92-.708 4.06-1.743 6.309-3.215 0 0-2.743 4.469-9.93 6.486 1.647 2.07 3.621 4.414 3.621 4.414 12.124-.382 16.787-8.284 16.787-8.284z" fill="#D1E2E2"/></g><defs><clipPath id="a"><path fill="#fff" d="M0 0h80v80H0z"/></clipPath></defs></svg>
